!!!COM: Fux, Johann Joseph
!!!OMD: Gradus ad Parnassum Exercise
!!!YEC: CC0 1.0 Universal (Public Domain). Mark Gotham and FourScoreAndMore.org waive all rights to this document.
**kern	**kern	**kern	**kern
*part4	*part3	*part2	*part1
*staff4	*staff3	*staff2	*staff1
*I"4	*I"3	*I"2	*I"1
*I'Pno	*I'Pno	*I'Pno	*I'Pno
!!LO:LB:g=z
*clefF4	*clefGv2	*clefG2	*clefG2
*k[]	*k[]	*k[]	*k[]
!!LO:TX:omd:t=
*M4/4	*M4/4	*M4/4	*M4/4
=231	=231	=231	=231
!	!	!	!LO:TX:a:t=Fig. 185; Species&colon; 3; Modal final&colon; e; Cantus firmus&colon; 2
1E	4G#X/	1e	1b
.	4B\	.	.
.	4E/	.	.
.	4G#/	.	.
=232	=232	=232	=232
1F	4A/	1c	1a
.	4c\	.	.
.	4A/	.	.
.	4G/	.	.
=233	=233	=233	=233
1D	4F/	1d	1a
.	4A/	.	.
.	4G/	.	.
.	4F/	.	.
=234	=234	=234	=234
1E	4G/	1c	1cc
.	4E/	.	.
.	4e\	.	.
.	4d\	.	.
=235	=235	=235	=235
1F	4c\	1A	1cc
.	4B\	.	.
.	4A/	.	.
.	4G/	.	.
=236	=236	=236	=236
1F	4F/	1a	1cc
.	4G/	.	.
.	4A/	.	.
.	4B\	.	.
=237	=237	=237	=237
1C	4c\	1g	1ee
.	4d\	.	.
.	4e\	.	.
.	4d\	.	.
=238	=238	=238	=238
1C	4c\	1e	1a
.	4A/	.	.
.	4c\	.	.
.	4B\	.	.
=239	=239	=239	=239
1D	4A/	1f	1a
.	4D/	.	.
.	4d\	.	.
.	4c\	.	.
=240	=240	=240	=240
1E	1B	1e	1g#X
==	==	==	==
*-	*-	*-	*-
!!!software: music21 v.9.7.1
!!!software: music21 v.9.7.1
!!!software: MuseScore 3.4.2
!!!RDF**kern: > = above
!!!RDF**kern: < = below
